X:1
T:Title
%%score ( 1 2 3 ) 4
L:1/8
M:2/2
K:G
V:1 treble nm="Grand Piano, Piano"
V:2 treble 
V:3 treble 
V:4 bass nm="Grand Piano, Piano"
V:1
 z4[Q:1/4=100] [DG]4 | [DG]2 [DF]2 [B,E]2 [B,D]2 | [B,G]4 [DA]4 | [DB]4 [DB]4 | %4
w: 1~All~|peo ple~ that~ on~|earth~ do~|dwell,~ sing~|
 [DB]2 [DB]2 [DA]2 [B,G]2 | [Ec]4 [DB]4 | [DA]4 [B,G]4 | [DA]2 [DB]2 [CA]2 [DG]2 | [CE]4 [CF]4 | %9
w: to~ the~ Lord~ with~|cheer ful~|voice;~ him~|serve~ with~ joy,~ his~|praise~ forth~|
 [B,G]4 [Dd]4 | .B3 ^C [DA]2 [Ec]2 | z4 A4 |[M:2/4] [B,G]4 |] %13
w: tell,~ come~|ye~ * fore~ him~|re|joice.~|
V:2
 x8 | x8 | x8 | x8 | x8 | x8 | x8 | x8 | x8 | x8 | z2 G2 z4 | B4 z2 C2 |[M:2/4] x4 |] %13
w: ||||||||||be|||
V:3
 x8 | x8 | x8 | x8 | x8 | x8 | x8 | x8 | x8 | x8 | D4 z4 | D8 |[M:2/4] x4 |] %13
V:4
 z4 [G,B,]4 | [G,B,]2 [D,A,]2 [E,G,]2 [B,,F,]2 | E,4 [D,F,]4 | [G,,G,]4 [G,B,]4 | %4
 G,2 G,2 [D,F,]2 [E,G,]2 | [C,G,]4 [G,,G,]4 | [D,F,]4 [E,G,]4 | %7
 [D,F,]2 [G,,G,]2 [A,,E,]2 [B,,G,]2 | [C,G,]4 [A,,A,]4 | [E,G,]4 [F,A,]4 | %10
 G,2 [E,G,]2 [D,F,]2 [C,G,]2 | [D,G,]4 [D,F,]4 |[M:2/4] [G,,G,]4 |] %13

